X:1
T:Title
%%score { ( 1 4 ) | ( 2 3 ) }
L:1/8
M:3/4
K:Ab
V:1 treble nm="Grand Piano"
V:4 treble 
V:2 bass 
V:3 bass 
V:1
 z2 z2[Q:1/4=124] E2 | [Ec]2 _c2 =c2 | [Fd]2 A2 B2 | [Ec]2 _c2 =c2 | [A,CA]4 [A,EG]2 | %5
 [DF]2 G2 A2 | [Fd]2 A2 B2 | c6- | c4[K:treble] z2 | B2 =A2 B2 | d2 c2 B2 | [CA]2 G2 F2 | %12
 [A,CE]4 E2 | B,2- [B,G]2 A2 |[M:7/8] [=Dc]2 B3 F2 |[M:3/4] B6- |[M:2/4] B4 |[M:1/4] [CE]2 | %18
[M:3/4] [Ec]2 [DB]2 [CA]2 | [CE]2 [CA]3 [CF] | [DG]6- | [DG]4 [DE]2 | [Gd]2 [Gc]2 [GB]2 | %23
 [Ge]2 [EGB]3 [=DF_c] | [Ec]6- | [Ec]4 z2 | [CE]2 [_C=D]2 [=CE]2 | [Ec]2 [DB]2 [EA]2 | %28
 A2 [GB]2 [_Gc]2 |[M:4/4] [Fd]6 F2 |[M:3/4] E2 A2 c2 |[M:7/8] [=DB]2 [DF]3 [B,_DG]2 |[M:3/4] A6- | %33
[M:2/4] A4 |] %34
V:2
 z2 z2 C2 | z2 =D2 E2 | z2[K:treble] F2 =E2 | z2 =D2 E2 | A,,4 C,2 | z2[K:treble] E2 F2 | %6
 z2[K:treble] F2 =E2 | [A,E]6- | [A,E]4 E2 | D2 C2 D2 | [G,F]2 [A,E]2 [G,D]2 | z2 E2 D2 | A,,4 C2 | %13
 z2 =D2 [F,D]2 |[M:7/8] F,2 [G,=D]3 [A,D]2 |[M:3/4] [E,G,E]4 [F,A,]2 |[M:2/4] [G,B,]4 | %17
[M:1/4] [A,,A,]2 |[M:3/4] [A,,A,]2 [A,,A,]2 [A,,E,]2 | [A,,A,]2 [A,,E,]3 [A,,E,] | [B,,E,]6- | %21
 [B,,E,]4 [E,G,]2 | [E,B,]2 [E,C]2 [E,D]2 | [E,B,]2 E,3 G, | A,6 | A,4 [A,,A,][A,,A,] | %26
 [A,,A,]2 [A,,A,]2 [A,,A,]2 | [A,,A,]2 [B,,G,]2 [C,A,]2 | [C,A,]2 [B,,G,]2 [A,,A,]2 | %29
[M:4/4] [D,A,]6 [=D,A,_C]2 |[M:3/4] [E,A,C]2 [E,A,C]2 [E,A,E]2 |[M:7/8] [B,,B,]2 [B,,B,]3 E,2 | %32
[M:3/4] z2 z2 F,2 |[M:2/4] E,4 |] %34
V:3
 x6 | [A,,A,]6 | [A,,A,]6[K:treble] | [A,,A,]6 | x6 | [D,A,]6[K:treble] | [D,A,]6[K:treble] | x6 | %8
 x6 | [E,G,]6 | E,6 | [A,,A,]6 | x6 | B,,6 |[M:7/8] B,,-B,,-B,,- B,,3 z |[M:3/4] x6 |[M:2/4] x4 | %17
[M:1/4] x2 |[M:3/4] x6 | x6 | x6 | x6 | x6 | x6 | x6 | x6 | x6 | x6 | x6 |[M:4/4] x8 |[M:3/4] x6 | %31
[M:7/8] x7 |[M:3/4] A,,6- |[M:2/4] A,,4 |] %34
V:4
 x6 | x6 | x6 | x6 | x6 | x6 | x6 | z2 E,2 C,2 | A,,4[K:treble] c2 | x6 | x6 | x6 | x6 | %13
 [=DF]2 z2 z2 |[M:7/8] x7 |[M:3/4] z2 z2 =D2 |[M:2/4] D4 |[M:1/4] x2 |[M:3/4] x6 | x6 | x6 | x6 | %22
 x6 | x6 | C6 | z2 z2 [CE][CE] | x6 | x6 | x6 |[M:4/4] x8 |[M:3/4] x6 |[M:7/8] x7 | %32
[M:3/4] [A,C]4 D2 |[M:2/4] C4 |] %34

